src/public/images/gocardless-large.svg

<svg width="64" height="64" viewBox="0 0 64 64" fill="none" xmlns="http://www.w3.org/2000/svg">
  <rect width="64" height="64" rx="12" fill="#F1F252" />
  <path
    d="M17 31.972C17.0124 23.1509 23.8243 16 32.7638 16C36.1946 16 38.1231 16.5568 38.1231 16.5568L43.8214 28.1617L43.7716 28.2115L36.431 23.86C32.179 21.3219 29.0872 20.0031 26.574 20.1058C23.9208 20.1555 22.3251 22.2862 22.3251 25.381C22.4215 33.2908 29.9581 43.0296 37.4294 43.0296C40.487 43.0296 42.0764 42.0467 43.0096 40.8585L31.9239 28.7278V28.675H47.1371C47.3455 29.7636 47.4606 30.8647 47.4762 31.972C47.4762 40.8491 40.6674 48 32.2599 48C23.8523 48 17 40.8491 17 31.972Z"
    fill="#1C1B18"
  />
</svg>

<svg xmlns="http://www.w3.org/2000/svg" fill="none" viewBox="0 0 64 64">
  <rect width="64" height="64" fill="#F1F252" rx="12" />
  <path
    fill="#1C1B18"
    d="M17 31.97C17.01 23.15 23.82 16 32.76 16c3.43 0 5.36.56 5.36.56l5.7 11.6-.05.05-7.34-4.35c-4.25-2.54-7.34-3.86-9.86-3.75-2.65.05-4.24 2.18-4.24 5.27.1 7.91 7.63 17.65 15.1 17.65 3.06 0 4.65-.98 5.58-2.17L31.92 28.73v-.05h15.22c.2 1.08.32 2.18.34 3.3 0 8.87-6.81 16.02-15.22 16.02C23.86 48 17 40.85 17 31.97Z"
  />
</svg>
